resources/icons/20px/data-search.svg

<svg width="20" height="20" viewBox="0 0 20 20" fill="none" xmlns="http://www.w3.org/2000/svg">
    <path
        d="M2 9.5V4.1C3.5 5.23 6.52 6 10 6C13.49 6 16.51 5.23 18 4.1V9.5C18 9.55335 17.9946 9.60632 17.9841 9.65885C16.9076 8.05612 15.078 7 13 7C10.0859 7 7.65703 9.07731 7.11357 11.8323C4.12104 11.4704 2 10.5622 2 9.5Z"
        fill="#5F6B7C" />
    <path
        d="M7.0007 12.906C7.00124 12.8708 7.00208 12.8357 7.00323 12.8008C4.83513 12.5023 3.04717 11.8889 2 11.1V16.5C2 17.88 5.58 19 10 19C10.6967 19 11.3726 18.9722 12.0169 18.9199C9.53066 18.5102 7.56082 16.5724 7.1014 14.1033C7.03473 13.745 7 13.3761 7 13V12.9923L7.0007 12.906Z"
        fill="#5F6B7C" />
    <path
        d="M18 2.5C18 3.88 14.42 5 10 5C5.59 5 2 3.88 2 2.5C2 1.12 5.58 0 10 0C14.42 0 18 1.12 18 2.5Z"
        fill="#5F6B7C" />
    <path fill-rule="evenodd" clip-rule="evenodd"
        d="M15.7574 17.1716L18.2914 19.7056C18.6819 20.0962 19.3151 20.0962 19.7056 19.7056C20.0962 19.3152 20.0962 18.6819 19.7056 18.2915L17.1716 15.7573C17.6951 14.967 18 14.019 18 13C18 12.7114 17.9755 12.4285 17.9286 12.1531C17.873 11.8276 17.786 11.5127 17.6708 11.2119C16.9513 9.33374 15.1314 8 13 8C10.2649 8 8.04266 10.196 8.00061 12.9214L8 13C8 13.3145 8.02902 13.6221 8.08453 13.9204C8.51653 16.2422 10.553 18 13 18C14.0191 18 14.9669 17.6951 15.7574 17.1716ZM13 16C14.6569 16 16 14.6567 16 13C16 11.3433 14.6569 10 13 10C11.3431 10 10 11.3433 10 13C10 14.6567 11.3431 16 13 16Z"
        fill="#5F6B7C" />
</svg>

<svg xmlns="http://www.w3.org/2000/svg" viewBox="0 0 20 20">
  <path d="M2 9.5V4.1C3.5 5.23 6.52 6 10 6c3.49 0 6.51-.77 8-1.9v5.4a1 1 0 0 1-.016.159 6.002 6.002 0 0 0-10.87 2.173C4.12 11.47 2 10.562 2 9.5M7 12.906l.003-.105C4.835 12.502 3.047 11.889 2 11.1v5.4c0 1.38 3.58 2.5 8 2.5.697 0 1.373-.028 2.017-.08A6.005 6.005 0 0 1 7 13v-.094"/>
  <path d="M18 2.5C18 3.88 14.42 5 10 5 5.59 5 2 3.88 2 2.5S5.58 0 10 0s8 1.12 8 2.5M15.757 17.172l2.534 2.534a1 1 0 1 0 1.415-1.415l-2.534-2.534c.523-.79.828-1.738.828-2.757a5 5 0 0 0-.33-1.788A5.002 5.002 0 0 0 8 12.922V13q0 .473.085.92a5.002 5.002 0 0 0 7.672 3.252M13 16a3 3 0 1 0 0-6 3 3 0 0 0 0 6"/>
</svg>
